assets/img/braze_icons/wallet-03.svg

<svg fill="none" height="24" viewBox="0 0 24 24" width="24" xmlns="http://www.w3.org/2000/svg"><path clip-rule="evenodd" d="m5 4c-.55228 0-1 .44772-1 1s.44772 1 1 1h14c1.6569 0 3 1.34315 3 3v10c0 1.6569-1.3431 3-3 3h-14c-1.65685 0-3-1.3431-3-3v-14c0-1.65685 1.34315-3 3-3h12c.5523 0 1 .44772 1 1s-.4477 1-1 1zm11.5 8.5c-.8284 0-1.5.6716-1.5 1.5s.6716 1.5 1.5 1.5 1.5-.6716 1.5-1.5-.6716-1.5-1.5-1.5z" fill="#801ed7" fill-rule="evenodd"/></svg>

<svg width="24" height="24" viewBox="0 0 24 24" fill="none" xmlns="http://www.w3.org/2000/svg">
<path fill-rule="evenodd" clip-rule="evenodd" d="M5 4C4.44772 4 4 4.44772 4 5C4 5.55228 4.44772 6 5 6L19 6C20.6569 6 22 7.34315 22 9V19C22 20.6569 20.6569 22 19 22H5C3.34315 22 2 20.6569 2 19V5C2 3.34315 3.34315 2 5 2H17C17.5523 2 18 2.44772 18 3C18 3.55228 17.5523 4 17 4H5ZM16.5 12.5C15.6716 12.5 15 13.1716 15 14C15 14.8284 15.6716 15.5 16.5 15.5C17.3284 15.5 18 14.8284 18 14C18 13.1716 17.3284 12.5 16.5 12.5Z" fill="#801ED7"/>
</svg>
